raw-svg/microsoft.svg

<svg viewBox="0 0 24 24" xmlns="http://www.w3.org/2000/svg"><path d="m4 4h7.5v7.5h-7.5zm8.5 0h7.5v7.5h-7.5zm-8.5 8.5h7.5v7.5h-7.5zm8.5 0h7.5v7.5h-7.5z"/></svg>

<svg xmlns="http://www.w3.org/2000/svg" viewBox="0 0 24 24"><g id="microsoft"><path d="M4,4h7.5v7.5H4Zm8.5,0H20v7.5H12.5ZM4,12.5h7.5V20H4Zm8.5,0H20V20H12.5Z"/></g></svg>
